!!!COM:	la Rue, Pierre de
!!!CDT:	~1452///-1518/11/20/
!!!OPR:	Missa De beata virgine
!!!ONM:	2
!!!OTL:	Gloria
!!!AGN:	Mass; Gloria
!!!SCT:	Rue1008b
!!!SCA:	Rue1008b
!!!voices:	4
!!!voices-OPR:	4
**kern	**kern	**kern	**kern
*staff4	*staff3	*staff2	*staff1
*Ivox	*Ivox	*Ivox	*Ivox
*I"Bassus	*I"Tenor	*I"Altus	*I"Superius
*I'B	*I'T	*I'A	*I'S
*>[A,B]	*>[A,B]	*>[A,B]	*>[A,B]
*>A	*>A	*>A	*>A
*clefF4	*clefGv2	*clefGv2	*clefG2
*k[]	*k[]	*k[]	*k[]
*M2/1	*M2/1	*M2/1	*M2/1
*met(C|)	*met(C|)	*met(C|)	*met(C|)
!!section: Et in terra pax
!!!OMD: Et in terra pax
=1-	=1-	=1-	=1-
0r	1d	1r	0r
.	2e\	1g	.
.	2B\	.	.
=2	=2	=2	=2
0r	1c	2a\	1r
.	.	2e\	.
.	1d	1f	1dd
=3	=3	=3	=3
1G	0r	1g	2ee\
.	.	.	2b\
2A\	.	2r	1cc
2E\	.	2g\	.
=4	=4	=4	=4
2F\	0r	2f\	1dd
1G	.	2d\	.
.	.	1g	2r
2E\	.	.	2g/
=5	=5	=5	=5
2F\	2r	1r	2a/
2G\	2G/	.	2b\
2F\	2A/	2c\	2cc\
2F\	2A/	2d\	2a/
=6	=6	=6	=6
2G\	2B\	2e\	2g/
1A	2A/	2f\	2.cc\
.	2c\	2e\	.
.	.	.	4b\
[2F\	[2c\	[2f\	4a/
.	.	.	4g/
=7	=7	=7	=7
2F\]	4c\]	2f\]	2a/
.	4B\	.	.
2G\	4A/	1.d	1g
.	4G/	.	.
1D	1A	.	.
.	.	.	2f#i/
=8	=8	=8	=8
0r	0G	1.B	0g
.	.	4A/	.
.	.	4G/	.
=9	=9	=9	=9
1.r	2r	0G	0r
.	2d\	.	.
.	2.d\	.	.
[2G\	.	.	.
.	4c\	.	.
=10	=10	=10	=10
2G\]	2B\	0r	0r
2F\	2A/	.	.
1E	1c	.	.
=11	=11	=11	=11
1D	1d	2r	2r
.	.	2f\	2dd\
1r	1r	2f\	2.dd\
.	.	[2g\	.
.	.	.	4cc\
=12	=12	=12	=12
0r	0r	2g\]	2b\
.	.	2f\	2a/
.	.	1e	1cc
=13	=13	=13	=13
0r	0r	1d	2dd\
.	.	.	1dd
.	.	1g	.
.	.	.	2b\
=14	=14	=14	=14
1r	2r	2e\	2cc\
.	1d	2f\	2a/
1G	.	1g	1g
.	2B\	.	.
=15	=15	=15	=15
2E\	2c\	1c	1.r
2F\	2A/	.	.
1G	1G	1r	.
.	.	.	2dd\
=16	=16	=16	=16
2C/	0r	1.r	2ee\
2G\	.	.	2dd\
2A\	.	.	2cc\
2G\	.	2g\	2b\
=17	=17	=17	=17
2.F\	1r	2.a\	1a
4E\	.	4g\	.
[1D	[1A	2f\	1ff
.	.	2e\	.
=18	=18	=18	=18
1D]	2A/]	1d	2ff\
.	2A/	.	1ff
1A	1A	2r	.
.	.	2e\	[2ee\
=19	=19	=19	=19
2A\	1c	2e\	2ee\]
1A	.	1e	1cc
.	2A/	.	.
2E\	2G/	2e\	2b\
=20	=20	=20	=20
2A\	1c	2f\	1a
2A\	.	2f\	.
1G	2d\	1g	1b
.	2d\	.	.
=21	=21	=21	=21
1A	2f\	1c	2r
.	2e\	.	2a/
2r	1g	2r	2b\
2G\	.	2d\	2b\
=22	=22	=22	=22
2A\	2r	2c\	2a/
2A\	2e\	2c\	2cc\
2F\	2.f\	2c\	2cc\
2F\	.	[2f\	[2a/
.	4e\	.	.
=23	=23	=23	=23
2F\	2c\	4f\]	2a/]
.	.	4e\	.
2G\	2B\	1d	1g
1D	1A	.	.
.	.	2d\	2f#i/
=24	=24	=24	=24
1G	0G	1B	0g
1r	.	1r	.
=25	=25	=25	=25
0r	0r	1g	2r
.	.	.	1dd
.	.	2f\	.
.	.	2e\	2cc\
=26	=26	=26	=26
1r	1r	2d\	2b\
.	.	2c\	2a/
[1G	2.d\	1r	1g
.	4c\	.	.
=27	=27	=27	=27
2G\]	2B\	0r	0r
2F\	2A/	.	.
2E\	1G	.	.
2D\	.	.	.
=28	=28	=28	=28
1C	2r	1e	0r
.	2c\	.	.
2r	2d\	2f\	.
[2G\	[2e\	2g\	.
=29	=29	=29	=29
2G\]	2e\]	2e\	2r
2F\	1.c	2f\	2.cc\
1E	.	2g\	.
.	.	.	4dd\
.	.	2G/	2ee\
=30	=30	=30	=30
1D	1d	1A	2a/
.	.	.	2dd\
2r	2A/	2r	2cc\
2G\	2d\	2B\	2b\
=31	=31	=31	=31
2A\	2c\	2c\	2a/
2G\	2B\	2d\	2b\
2F\	1c	2f\	4a/
.	.	.	4g/
2F\	.	2f\	2a/
=32	=32	=32	=32
2G\	2.B\	2d\	2d/
2G\	.	2d\	1g
.	4c\	.	.
1D	1A	1d	.
.	.	.	2f#i/
=33	=33	=33	=33
0r	0G	0r	1g
.	.	.	1r
=34	=34	=34	=34
0r	0r	1c	1a
.	.	2B\	2g/
.	.	2A/	2f/
=35	=35	=35	=35
1r	1r	1B	1g
1A	1c	1A	1a
=36	=36	=36	=36
2G\	2B\	0r	0r
2F\	2A/	.	.
1G	1B	.	.
=37	=37	=37	=37
1A	1A	2r	2r
.	.	1a	2cc\
2B\	1r	.	2dd\
2c\	.	2e\	[2ee\
=38	=38	=38	=38
2A\	2c\	2.a\	2ee\]
2B\	2d\	.	1dd
.	.	4g\	.
1A	2e\	1a	.
.	2e\	.	2cc\
=39	=39	=39	=39
2r	2d\	2r	2dd\
2A\	1r	2a\	2cc\
2D\	.	[1a	2ff\
2C/	2c\	.	[2ee\
=40	=40	=40	=40
1D	1f	1a]	2ee\]
.	.	.	1dd
1A	1e	1a	.
.	.	.	2cc#i\
=41	=41	=41	=41
0D	0d	0f	1dd
.	.	.	2r
.	.	.	2dd\
=42	=42	=42	=42
0r	0r	2r	2dd\
.	.	2d\	2b\
.	.	2e\	2.cc\
.	.	[2f\	.
.	.	.	4b\
=43	=43	=43	=43
0r	0r	2f\]	2a/
.	.	2g\	1g
.	.	2e\	.
.	.	[2f\	2cc\
=44	=44	=44	=44
0r	0r	4f\]	2a/
.	.	4e\	.
.	.	2d\	2b\
.	.	1c	2cc\
.	.	.	[2a/
=45	=45	=45	=45
0r	1r	2f\	2a/]
.	.	2d\	2dd\
.	1G	2e\	2g/
.	.	[2d\	[2a/
=46	=46	=46	=46
0r	2c\	4d\]	2a/]
.	.	4G/	.
.	2B\	2G/	1g
.	1c	1A	.
.	.	.	2f#i/
=47	=47	=47	=47
1.r	1d	0G	0g
.	2r	.	.
2C/	2e\	.	.
=48	=48	=48	=48
2F\	2d\	0r	0r
2E\	2.e\	.	.
1F	.	.	.
.	4d\	.	.
.	2d\	.	.
=49	=49	=49	=49
2G\	2r	0r	0r
2A\	1e	.	.
2G\	.	.	.
2A\	2f\	.	.
=50	=50	=50	=50
2.G\	2e\	0r	0r
.	2g\	.	.
4B\	.	.	.
2A\	2f\	.	.
[2G\	4g\	.	.
.	4f\	.	.
=51	=51	=51	=51
2G\]	4e\	0r	1r
.	4d\	.	.
2F\	1d	.	.
1E	.	.	2.gg\
.	2c#i\	.	.
.	.	.	4gg\
=52	=52	=52	=52
0D	0d	0r	2ff\
.	.	.	2ff\
.	.	.	1dd
=53	=53	=53	=53
0r	0r	2.g\	1ee
.	.	4g\	.
.	.	2f\	2ff\
.	.	2f\	[2dd\
=54	=54	=54	=54
0r	0r	1d	2dd\]
.	.	.	2ff\
.	.	1e	2ee\
.	.	.	2cc\
=55	=55	=55	=55
0r	0r	2f\	2.dd\
.	.	2d\	.
.	.	.	4cc\
.	.	2d\	4b\
.	.	.	4a/
.	.	2c\	[2a/
=56	=56	=56	=56
0r	0r	1d	2a/]
.	.	.	1dd
.	.	1e	.
.	.	.	2cc#i\
=57	=57	=57	=57
2r	2r	1d	1dd
2D\	2f\	.	.
2D\	2f\	1r	1r
2C/	2e\	.	.
=58	=58	=58	=58
2D\	2f\	2r	0r
2D\	2d\	2f\	.
2A\	2d\	2f\	.
2A\	2c#i\	2e\	.
=59	=59	=59	=59
1D	1d	2f\	2r
.	.	2d\	2ff\
1r	1r	2d\	2ff\
.	.	2c\	2ee\
=60	=60	=60	=60
1r	1r	1d	2ff\
.	.	.	2dd\
1A	2r	1r	2dd\
.	2e\	.	2cc#i\
=61	=61	=61	=61
1d	2f\	0a	1dd
.	1d	.	.
1A	.	.	2r
.	2c#i\	.	2ee\
=62	=62	=62	=62
1D	[0d	1a	2ff\
.	.	.	2.dd\
[1G	.	[1g	.
.	.	.	4cc\
.	.	.	4b\
.	.	.	4a/
=63	=63	=63	=63
2G\]	1d]	2g\]	4b\
.	.	.	4a/
2D\	.	2.a\	1dd
1A	1e	.	.
.	.	4g\	.
.	.	2e\	2cc#i\
=64	=64	=64	=64
1D	0d	1f	0dd
2r	.	1d	.
2G\	.	.	.
=65	=65	=65	=65
2B\	2r	0r	0r
2B\	2g\	.	.
2A\	2g\	.	.
2A\	2g\	.	.
=66	=66	=66	=66
2G\	2.g\	0r	0r
1B	.	.	.
.	4f\	.	.
.	4e\	.	.
.	4d\	.	.
[2A\	[2f\	.	.
=67	=67	=67	=67
2A\]	2f\]	0r	0r
4G\	1d	.	.
4F\	.	.	.
1E	.	.	.
.	2c#i\	.	.
=68	=68	=68	=68
2D\	2d\	2r	2r
1D	1f	1a	1dd
2D\	2f\	2a\	2dd\
=69	=69	=69	=69
2D\	2f\	2a\	2dd\
2D\	2f\	2a\	2dd\
2.G\	2.d\	2.g\	2.b\
4G\	4e\	4g\	4cc\
=70	=70	=70	=70
2F\	2f\	2c\	2a/
1E	1g	1e	2g/
.	.	.	2ee\
[2D\	[2a\	2A/	[2ff\
=71	=71	=71	=71
4D\]	2a\]	1.a	4ff\]
4E\	.	.	4ee\
4F\	4g\	.	1dd
4G\	4f\	.	.
1A	1e	.	.
.	.	4g\	2cc#i\
.	.	4f\	.
=72	=72	=72	=72
1D	0d	1f	1dd
1r	.	1r	1r
=73	=73	=73	=73
0D	0d	0a	0ff
=74	=74	=74	=74
1A	1c	0a	1ee
1A	1c	.	1cc
=75	=75	=75	=75
1G	0B	1d	1dd
[1E	.	1g	[1ee
=76	=76	=76	=76
1E]	1c	1e	1ee]
1D	1d	[1a	[1ff
=77	=77	=77	=77
[0Dl	[0Al	1a]	1ff]
.	.	1f	1dd
=78	=78	=78	=78
0D]	0A]	0fl	0ddl
!!LO:LB:i:g=z
=79||	=79||	=79||	=79||
*>B	*>B	*>B	*>B
*clefF4	*clefGv2	*clefGv2	*clefG2
*k[]	*k[]	*k[]	*k[]
*M2/1	*M2/1	*M2/1	*M2/1
*met(C|)	*met(C|)	*met(C|)	*met(C|)
0r	1d	0r	0r
.	1G	.	.
=80	=80	=80	=80
0r	1d	0r	1dd
.	2r	.	1g
.	2c\	.	.
=81	=81	=81	=81
0r	2.f\	0r	1dd
.	4e\	.	.
.	2d\	.	2r
.	2c\	.	2ee\
=82	=82	=82	=82
1.r	1d	0r	2.ff\
.	.	.	4ee\
.	1r	.	2dd\
2A\	.	.	2cc#i\
=83	=83	=83	=83
2.B-i\	0r	1.r	0dd
4A\	.	.	.
2G\	.	.	.
2F\	.	2d\	.
=84	=84	=84	=84
2G\	0r	2e\	0r
2A\	.	2f\	.
2E\	.	2.g\	.
[2G\	.	.	.
.	.	4f\	.
=85	=85	=85	=85
2G\]	0r	4e\	0r
.	.	4d\	.
2F\	.	1d	.
1E	.	.	.
.	.	2c#i\	.
=86	=86	=86	=86
1D	2r	2d\	0r
.	1d	1f	.
1r	.	.	.
.	2c\	2e\	.
=87	=87	=87	=87
0r	2B\	2d\	0r
.	2c\	2e\	.
.	2A/	2f\	.
.	2G/	2g\	.
=88	=88	=88	=88
2r	2r	1c	0r
1A	1e	.	.
.	.	1c	.
2G\	2e\	.	.
=89	=89	=89	=89
2F\	2f\	1.r	1.r
2G\	2d\	.	.
2E\	2.g\	.	.
2C/	.	[2c\	2cc\
.	4f\	.	.
=90	=90	=90	=90
1F	4e\	4c\]	1dd
.	4d\	4B\	.
.	1d	1A	.
1E	.	.	1ee
.	2c#i\	2G/	.
=91	=91	=91	=91
0D	0d	0A	1ff
.	.	.	1dd
=92	=92	=92	=92
1F	0r	1A	0r
2E\	.	2c\	.
[2D\	.	[2d\	.
=93	=93	=93	=93
2D\]	0r	2d\]	1a
2d\	.	2f\	.
2A\	.	2e\	2cc\
[2d\	.	2f\	[2dd\
=94	=94	=94	=94
1d]	0r	1d	2dd\]
.	.	.	2ff\
2c\	.	1r	2ee\
2d\	.	.	2ff\
=95	=95	=95	=95
1G	0r	1.g	2dd\
.	.	.	1gg
1r	.	.	.
.	.	[2a\	[2ff\
=96	=96	=96	=96
0r	0r	2a\]	2ff\]
.	.	2g\	2ee\
.	.	2e\	2cc\
.	.	2d\	2dd\
=97	=97	=97	=97
0B	2r	0d	1dd
.	1g	.	.
.	.	.	1r
.	[2f\	.	.
=98	=98	=98	=98
2A\	2f\]	0r	0r
2G\	2e\	.	.
2E\	2c\	.	.
2D\	2d\	.	.
=99	=99	=99	=99
2D\	1d	1r	1.r
2F\	.	.	.
1E	2r	1G	.
.	2g\	.	2ee\
=100	=100	=100	=100
1D	1a	1d	2ff\
.	.	.	2ff\
2r	2g\	2B\	2.gg\
2E\	[2g\	2B\	.
.	.	.	4ff\
=101	=101	=101	=101
2C/	2g\]	2c\	4ee\
.	.	.	4dd\
2D\	2f\	2A/	1dd
1A	1e	1A	.
.	.	.	2cc#i\
=102	=102	=102	=102
2r	1d	1.r	1dd
2D\	.	.	.
2.F\	1r	.	1r
.	.	2A/	.
4G\	.	.	.
=103	=103	=103	=103
4A\	0r	2.c\	0r
4B\	.	.	.
2.c\	.	.	.
.	.	4d\	.
.	.	4e\	.
4d\	.	4f\	.
[2e\	.	[2g\	.
=104	=104	=104	=104
4e\]	0r	2g\]	0r
4d\	.	.	.
1d	.	2f\	.
.	.	1e	.
2c#i\	.	.	.
=105	=105	=105	=105
1d	1.r	1d	2r
.	.	.	4a/
.	.	.	4b\
1A	.	1a	4cc\
.	.	.	4a/
.	2c\	.	[2ee\
=106	=106	=106	=106
1d	1f	1a	2ee\]
.	.	.	1dd
1A	1e	1a	.
.	.	.	2cc#i\
=107	=107	=107	=107
1D	0d	0f	0dd
1r	.	.	.
=108	=108	=108	=108
*M3/1	*M3/1	*M3/1	*M3/1
*met(3)	*met(3)	*met(3)	*met(3)
0A	0c	0e	1.ee
.	.	.	2dd\
1A	1c	1f	1cc
=109	=109	=109	=109
0G	1d	0g	1b
.	1e	.	1g
1E	[1e	1g	1b
=110	=110	=110	=110
1A	1e]	1c	1cc
1D	1d	1A	1dd
1D	1d	1A	1ff
=111	=111	=111	=111
1.C	1.g	1.c	1.ee
2C/	2g\	2c\	2ee\
1C	1g	1c	1ee
=112	=112	=112	=112
1G	0g	2.B\	1.dd
.	.	4c\	.
1G	.	2d\	.
.	.	2e\	2b\
1A	1f	1c	1cc
=113	=113	=113	=113
0.G	0g	0d	0b
.	1d	1r	1r
=114	=114	=114	=114
1r	1f	1d	1a
1r	1e	1A	1cc
1G	1d	2.B\	1b
.	.	4c\	.
=115	=115	=115	=115
0D	1.f	1d	1a
.	.	0a	2b\
.	2d\	.	1dd
1A	1e	.	.
.	.	.	2cc\
=116	=116	=116	=116
1B-i	0.d	1f	0dd
2B-i\	.	2f\	.
1G	.	1g	.
.	.	.	1b
2G\	.	2g\	.
=117	=117	=117	=117
1A	0.r	2e\	1cc
.	.	2A/	.
2G\	.	2B\	2b\
1F	.	2c\	1a
.	.	2F/	.
2E\	.	2G/	2g/
=118	=118	=118	=118
1D	1d	1A	1f
2G\	2B\	1r	2g/
1F	1c	.	1a
.	.	1F	.
2D\	2d\	.	2b\
=119	=119	=119	=119
1C	1e	1G	1cc
2D\	2d\	2F/	2b\
1F	1c	1A	1a
2G\	2B\	2d\	2g/
=120	=120	=120	=120
1C	1c	1e	0g
0D	0A	0d	.
.	.	.	1f#i
=121	=121	=121	=121
0.Gl	0.Gl	0.Bl	0.gl
==	==	==	==
*-	*-	*-	*-
!!!RDF**kern: l=long note in original notation
!!!RDF**kern: i=editorial accidental
!!!RDF**kern: V=start of tuplet marker
!!!RDF**kern: Z=end of tuplet marker
!!!ENC:	Jesse Rodin/Chris Gage 09-11-2012
!!!END:	2012/09/18/
!!!EED:	Jesse Rodin
!!!EEV:	2012/09/28/
!!!ONB:	Translated from MusicXML and edited on 2012/09/28/ by Craig Sapp
!!muse2ps: T^@{OPR}^u^@{ONM}{. }@{OTL}^C^@{COM}^i2I150v85,85,85,150Q8c120
